svg/fluentui-system-icons/ic_fluent_book_information_20_filled.svg

<svg width="20" height="20" viewBox="0 0 20 20" fill="none" xmlns="http://www.w3.org/2000/svg">
<path d="M6 2C4.89543 2 4 2.89543 4 4V16C4 17.1046 4.89543 18 6 18H15.5C15.7761 18 16 17.7761 16 17.5C16 17.2239 15.7761 17 15.5 17H6C5.44772 17 5 16.5523 5 16H15C15.5523 16 16 15.5523 16 15V4C16 2.89543 15.1046 2 14 2H6ZM10.75 5.75C10.75 6.16421 10.4142 6.5 10 6.5C9.58579 6.5 9.25 6.16421 9.25 5.75C9.25 5.33579 9.58579 5 10 5C10.4142 5 10.75 5.33579 10.75 5.75ZM10.5 12.5C10.5 12.7761 10.2761 13 10 13C9.72386 13 9.5 12.7761 9.5 12.5V8.5C9.5 8.22386 9.72386 8 10 8C10.2761 8 10.5 8.22386 10.5 8.5V12.5Z" fill="#212121"/>
</svg>

<svg xmlns="http://www.w3.org/2000/svg" width="20" height="20"><path d="M6 2a2 2 0 0 0-2 2v12a2 2 0 0 0 2 2h9.5a.5.5 0 0 0 0-1H6a1 1 0 0 1-1-1h10a1 1 0 0 0 1-1V4a2 2 0 0 0-2-2H6Zm4.75 3.75a.75.75 0 1 1-1.5 0 .75.75 0 0 1 1.5 0Zm-.25 6.75a.5.5 0 0 1-1 0v-4a.5.5 0 0 1 1 0v4Z"/></svg>
